X:1
T: The girl with the laughing eyes
C:
R:Reel
Q: 232
K:D
M:4/4
L:1/8
|:((3ABc)|d2 FG Ad ef|gf ed fd Bc|d2 FG A2 AB|AF EG FD DA|
d2 FG Ad ef|gf ed fd Bc|d2 FG A2 ag|fa ef d2 ((3efg)|
af bf af df|gf ed cd ((3efg)|af bf af df|ab ag fd ((3efg)|
af bf af df|gf ed fd Bc|d2 FG A2 ag|fa ef d2:|
